public/static/logo.svg

<?xml version="1.0" encoding="UTF-8"?>
<svg xmlns="http://www.w3.org/2000/svg" width="1024px" height="1024px" viewBox="0 0 1024 1024" version="1.1">
<g id="surface1">
<path style=" stroke:none;fill-rule:nonzero;fill:rgb(0%,31.764706%,84.705882%);fill-opacity:1;" d="M 638.441406 194.558594 C 640.320312 162.359375 636.121094 129.761719 640.878906 97.839844 C 673.039062 98.800781 705.238281 97.960938 737.398438 98.28125 C 737.359375 130.441406 737 162.558594 737.679688 194.679688 C 717.238281 197.839844 696.480469 196.601562 675.878906 196.800781 C 663.359375 196.761719 650.640625 197.839844 638.441406 194.558594 Z M 638.441406 194.558594 "/>
<path style=" stroke:none;fill-rule:nonzero;fill:rgb(0%,31.764706%,84.705882%);fill-opacity:1;" d="M 861.238281 125.519531 C 876.121094 125.359375 891 125.28125 905.878906 125.679688 C 905.761719 140.480469 905.839844 155.238281 905.800781 170 C 890.960938 169.921875 876.160156 169.878906 861.359375 170 C 861 155.199219 861 140.359375 861.238281 125.519531 Z M 861.238281 125.519531 "/>
<path style=" stroke:none;fill-rule:nonzero;fill:rgb(0%,31.764706%,84.705882%);fill-opacity:1;" d="M 366.519531 182.480469 C 439.921875 150 523.800781 143.441406 601.71875 161.921875 C 601.761719 185.359375 601.960938 208.800781 601.679688 232.238281 C 637.679688 234.078125 673.800781 230.71875 709.800781 233.28125 C 709.28125 263.800781 709.921875 294.28125 709.601562 324.800781 C 737.761719 325.078125 765.921875 324.640625 794.078125 325.039062 C 793.921875 348.441406 793.921875 371.839844 794.160156 395.238281 C 817.761719 395.199219 841.320312 395.121094 864.921875 395.039062 C 895.121094 476.640625 895.640625 568.921875 865.878906 650.761719 C 840.121094 723.558594 790.398438 787.441406 726.878906 831.238281 C 670.839844 870.078125 603.878906 893.078125 535.761719 896.558594 C 440.761719 902.359375 344.160156 869.199219 272.078125 807.160156 C 211.039062 754.601562 167.121094 682 150.761719 603 C 132.078125 520.078125 144.238281 431.039062 182.558594 355.320312 C 221.441406 278.761719 287.558594 216.359375 366.519531 182.480469 M 488.71875 367.960938 C 447 376.359375 409.121094 402.800781 387.238281 439.441406 C 365.839844 473.519531 360.160156 516.121094 368.679688 555.199219 C 378.121094 595.441406 404.121094 631.839844 439.878906 652.761719 C 477.398438 676.199219 525.121094 680.601562 567.078125 667.558594 C 604.039062 655.679688 636.078125 629.238281 654.761719 595.199219 C 676.71875 556.71875 680.28125 508.480469 665.121094 466.960938 C 650.359375 426.078125 617.601562 392.199219 577.199219 376.160156 C 549.398438 364.558594 518.199219 362.960938 488.71875 367.960938 Z M 488.71875 367.960938 "/>
<path style=" stroke:none;fill-rule:nonzero;fill:rgb(0%,31.764706%,84.705882%);fill-opacity:1;" d="M 781.640625 151.519531 C 796.480469 151.160156 811.398438 150.761719 826.121094 153.238281 C 825.761719 167.28125 825.800781 181.320312 826.28125 195.359375 C 811.320312 197.039062 796.320312 195.121094 781.359375 194.960938 C 781.359375 180.480469 781.320312 166 781.640625 151.519531 Z M 781.640625 151.519531 "/>
<path style=" stroke:none;fill-rule:nonzero;fill:rgb(0%,31.764706%,84.705882%);fill-opacity:1;" d="M 825.359375 196.71875 C 840.320312 196.878906 855.320312 196.800781 870.320312 196.839844 C 870.359375 211.519531 870.441406 226.160156 870.160156 240.839844 C 855.359375 241.078125 840.519531 241 825.71875 240.878906 C 825.480469 226.160156 825.519531 211.441406 825.359375 196.71875 Z M 825.359375 196.71875 "/>
<path style=" stroke:none;fill-rule:nonzero;fill:rgb(0%,31.764706%,84.705882%);fill-opacity:1;" d="M 728.679688 213.640625 C 754.839844 213.921875 781.039062 214.039062 807.238281 213.761719 C 807.679688 240.601562 807.761719 267.480469 807.238281 294.359375 C 781.121094 294.320312 755 294.238281 728.878906 294.398438 C 728.28125 267.480469 727.960938 240.519531 728.679688 213.640625 Z M 728.679688 213.640625 "/>
<path style=" stroke:none;fill-rule:nonzero;fill:rgb(0%,31.764706%,84.705882%);fill-opacity:1;" d="M 817.160156 293.679688 C 843.761719 294.121094 870.359375 293.601562 896.921875 293.960938 C 897.078125 320.640625 896.960938 347.28125 897 373.921875 C 870.398438 374.398438 843.761719 373.800781 817.160156 374.160156 C 817.039062 347.320312 816.320312 320.480469 817.160156 293.679688 Z M 817.160156 293.679688 "/>
</g>
</svg>

<svg xmlns="http://www.w3.org/2000/svg" width="1024" height="1024"><path d="M366.52 182.48c73.402-32.48 157.28-39.039 235.199-20.558.043 23.437.242 46.879-.04 70.316 36 1.84 72.122-1.52 108.122 1.043-.52 30.52.12 61-.2 91.52 28.16.277 56.32-.16 84.477.238-.156 23.402-.156 46.8.082 70.2 23.602-.04 47.16-.118 70.762-.2 30.2 81.602 30.719 173.883.957 255.723-25.758 72.797-75.48 136.68-139 180.476-56.04 38.84-123 61.84-191.117 65.32-95 5.801-191.602-27.359-263.684-89.398C211.04 754.602 167.121 682 150.762 603c-18.684-82.922-6.524-171.96 31.797-247.68 38.882-76.558 105-138.96 183.96-172.84m122.2 185.48c-41.719 8.4-79.598 34.84-101.48 71.481-21.4 34.079-27.079 76.68-18.56 115.758 9.442 40.242 35.442 76.64 71.2 97.563 37.52 23.437 85.242 27.84 127.2 14.797 36.96-11.88 69-38.32 87.683-72.36 21.957-38.48 25.52-86.719 10.36-128.238-14.763-40.883-47.52-74.762-87.923-90.8-27.8-11.602-59-13.2-88.48-8.2zm0 0" fill="#0051d8"/><path fill="#0051D8" d="M635 95h105v100H635zM860 125h45v45h-45zM780 150h45v45h-45zM825 195h45v45h-45zM728 213h80v80h-80zM817 293h80v80h-80z"/></svg>
